icons/gitlab.svg

<svg width="24" height="24" viewBox="0 0 24 24" fill="none" xmlns="http://www.w3.org/2000/svg">
<path fill-rule="evenodd" clip-rule="evenodd" d="M6.0482 2.00117C6.46046 2.02107 6.81814 2.29222 6.94867 2.68378L8.72074 8.00001H15.2792L17.0513 2.68378C17.1818 2.29222 17.5395 2.02107 17.9518 2.00117C18.364 1.98127 18.7462 2.2167 18.9138 2.59387L22.9138 11.5939C23.0897 11.9896 22.9908 12.4536 22.6689 12.7433L12.6689 21.7433C12.2886 22.0856 11.7113 22.0856 11.331 21.7433L1.33102 12.7433C1.00912 12.4536 0.910285 11.9896 1.08617 11.5939L5.08617 2.59387C5.2538 2.2167 5.63594 1.98127 6.0482 2.00117ZM14.6126 10H9.38741L12 17.8377L14.6126 10ZM9.85349 17.7228L7.27922 10H3.98319L3.20874 11.7425L9.85349 17.7228ZM4.87208 8.00001H6.61256L5.86664 5.76225L4.87208 8.00001ZM14.1465 17.7228L16.7207 10H20.0168L20.7912 11.7425L14.1465 17.7228ZM19.1279 8.00001H17.3874L18.1333 5.76225L19.1279 8.00001Z" fill="black"/>
</svg>

<svg
  width="24"
  height="24"
  viewBox="0 0 24 24"
  xmlns="http://www.w3.org/2000/svg"
>
  <path
    fill-rule="evenodd"
    clip-rule="evenodd"
    d="M6.048 2.001a1 1 0 0 1 .9.683L8.722 8h6.558l1.772-5.316a1 1 0 0 1 1.863-.09l4 9a1 1 0 0 1-.245 1.15l-10 9a1 1 0 0 1-1.338 0l-10-9a1 1 0 0 1-.245-1.15l4-9A1 1 0 0 1 6.048 2zM14.613 10H9.387L12 17.838 14.613 10zm-4.76 7.723L7.28 10H3.983l-.774 1.742 6.644 5.98zM4.873 8h1.74l-.746-2.238L4.872 8zm9.273 9.723L16.721 10h3.296l.774 1.742-6.645 5.98zM19.128 8h-1.74l.745-2.238L19.128 8z"
  />
</svg>
